W/wishbob.com logo.svg

<?xml version="1.0" ?>
<svg xmlns:xlink="http://www.w3.org/1999/xlink" xmlns="http://www.w3.org/2000/svg" viewBox="0 0 152.784 27.144">
	<defs>
		<linearGradient id="a">
			<stop style="stop-color:#f60;stop-opacity:1" offset="0"/>
			<stop style="stop-color:#fc0;stop-opacity:1" offset="1"/>
		</linearGradient>
		<linearGradient xlink:href="#a" id="d" gradientUnits="userSpaceOnUse" x1="109.232" y1="89.845" x2="262.016" y2="89.845"/>
		<marker style="overflow:visible" id="c" refX="0" refY="0" orient="auto">
			<path transform="matrix(.8 0 0 .8 10 0)" style="fill:#e77171;fill-opacity:1;fill-rule:evenodd;stroke:none;stroke-width:1pt;stroke-opacity:1" d="m0 0 5-5-17.5 5L5 5Z"/>
		</marker>
		<marker style="overflow:visible" id="b" refX="0" refY="0" orient="auto">
			<path transform="matrix(.8 0 0 .8 10 0)" style="fill:#e77171;fill-opacity:1;fill-rule:evenodd;stroke:none;stroke-width:1pt;stroke-opacity:1" d="m0 0 5-5-17.5 5L5 5Z"/>
		</marker>
		<path id="e" d="M37.798 65.768h296.933v62.197H37.798z"/>
	</defs>
	<g style="display:inline" transform="translate(-70.678 -79.926)">
		<path style="display:inline;opacity:1;mix-blend-mode:normal;fill:#e77171;fill-opacity:1;stroke:none;stroke-width:0;stroke-linecap:butt;stroke-linejoin:bevel;stroke-miterlimit:4;stroke-dasharray:none;stroke-opacity:1;marker-start:url(#b)" d="M203.053 87.17s.794 3.19-.258 2.914c-2.402-.633-2.977-1.397-5.311-1.572-2.335-.174-4.028.873-4.028.873V88.12s2.335-1.128 3.56-1.615c1.935-.77 6.828-4.024 5.97-2.059-.386.882.067 2.726.067 2.726z"/>
		<ellipse style="mix-blend-mode:normal;fill:#e77171;fill-opacity:1;stroke:none;stroke-width:.00400521;stroke-linejoin:bevel;stroke-miterlimit:4;stroke-dasharray:none;stroke-opacity:1;paint-order:fill markers stroke" cx="193.512" cy="87.684" rx=".941" ry=".565"/>
		<path style="display:inline;mix-blend-mode:normal;fill:#e77171;fill-opacity:1;stroke:none;stroke-width:0;stroke-linecap:butt;stroke-linejoin:bevel;stroke-miterlimit:4;stroke-dasharray:none;stroke-opacity:1;marker-start:url(#c)" d="M183.942 87.17s-.794 3.19.257 2.914c2.402-.633 2.977-1.397 5.312-1.572 2.335-.174 4.028.873 4.028.873V88.12s-2.335-1.128-3.56-1.615c-1.936-.77-6.828-4.024-5.97-2.059.385.882-.067 2.726-.067 2.726z"/>
	</g>
	<g style="display:inline">
		<path style="fill:#e77171;stroke:url(#d);stroke-width:0" d="M129.75 96.339q.413-1.11.865-2.39t.885-2.636q.433-1.374.828-2.767.414-1.412.734-2.767l-1.826-5.986q-.188-.621.02-1.073.225-.47.696-.772.47-.32 1.11-.47.659-.151 1.374-.151.621 0 1.11.075.49.057.848.226.376.17.621.49.245.3.395.79l5.403 17.393q.433-1.167.903-2.522.47-1.356.923-2.786.451-1.43.865-2.899.415-1.468.716-2.88.32-1.412.49-2.692.187-1.299.187-2.371 0-1.243-.169-2.071-.17-.828-.395-1.374-.207-.565-.377-.923-.17-.357-.17-.658 0-.396.208-.66.207-.282.527-.47.32-.188.696-.263.377-.094.716-.094.753 0 1.28.225.527.226.734.772.094.283.15.603.057.3.076.602.037.282.037.546v.395q0 .79-.263 2.165-.245 1.374-.697 3.106-.433 1.713-.997 3.69-.565 1.976-1.186 3.99-.603 1.995-1.224 3.915-.62 1.92-1.186 3.558-.545 1.618-.978 2.86-.415 1.224-.64 1.827-.151.451-.415.715-.244.263-.583.395-.32.15-.715.188-.377.038-.79.038-.754 0-1.243-.15-.47-.151-.753-.377-.283-.226-.414-.49-.132-.263-.207-.47l-3.746-12.31q-.621 2.051-1.261 4.046-.64 1.977-1.224 3.652-.565 1.676-1.016 2.937-.452 1.242-.697 1.826-.188.451-.47.715-.264.263-.603.395-.32.15-.696.188-.377.038-.772.038-.753 0-1.242-.15-.471-.151-.753-.377-.283-.226-.433-.49-.132-.263-.207-.47l-6.701-22.4q-.189-.64-.415-1.073-.207-.452-.527-.734-.3-.282-.753-.414-.433-.132-1.073-.132-.527 0-1.223.264-.697.244-1.337.753-.62.489-1.054 1.242-.433.734-.433 1.713 0 .602.151.96.17.357.376.546.208.17.415.226.225.037.32.037.47 0 .771-.15.302-.17.546-.34.245-.187.452-.338.226-.17.508-.17.226 0 .47.114.264.094.471.32.226.225.377.602.15.358.15.885 0 .753-.3 1.298-.283.546-.754.923-.451.357-1.054.546-.583.169-1.167.169-.903 0-1.619-.32-.696-.32-1.186-.866-.47-.546-.734-1.261-.244-.734-.244-1.562 0-1.958.753-3.407.753-1.469 1.995-2.447 1.242-.98 2.823-1.45 1.582-.49 3.257-.49 1.882 0 3.087.584 1.205.565 1.939 1.469.753.903 1.186 2.032.433 1.111.771 2.203zm29.764 4.894q0 .244-.094.602-.075.339-.395.659-.301.301-.885.508-.583.226-1.58.226-.998 0-1.563-.245-.565-.226-.847-.546-.283-.32-.358-.658-.056-.34-.056-.546V86.7q0-.546-.264-.941-.245-.414-.847-.414-.32 0-.546.113-.226.113-.49.32l-.395-.47q.433-.358.96-.697.546-.358 1.168-.621.62-.264 1.336-.433.715-.17 1.506-.17 1.223 0 1.901.339.678.32.998.81.32.47.376 1.016.075.546.075.96zm-6.362-22.137q0-.527.226-.997.245-.49.659-.847.433-.358.979-.565.564-.207 1.223-.207.64 0 1.186.207.565.207.979.565.414.357.64.847.245.47.245.997 0 .546-.245 1.017-.226.47-.64.828-.414.339-.979.546-.546.207-1.186.207-.659 0-1.223-.207-.546-.207-.98-.546-.413-.358-.658-.828-.226-.47-.226-1.017zm18.471 5.798q-.433 0-.828.113-.377.113-.678.376-.3.245-.47.64-.17.377-.17.904 0 .734.527 1.468.546.715 1.337 1.506.81.772 1.732 1.619.94.828 1.731 1.77.81.922 1.337 1.976.546 1.054.546 2.259 0 1.355-.47 2.409-.453 1.054-1.319 1.788-.847.734-2.07 1.13-1.205.376-2.692.376-1.299 0-2.353-.358-1.054-.376-1.882-.903-.81-.546-1.393-1.148-.584-.603-.904-1.092l.66-.47q.244.282.62.62.377.32.829.603.47.282.997.47.527.17 1.073.17 1.355 0 2.221-.64.866-.659.866-1.939 0-.715-.47-1.468-.47-.772-1.186-1.581-.716-.81-1.544-1.676-.828-.866-1.543-1.788-.716-.922-1.186-1.901t-.47-2.033q0-1.186.47-2.07.49-.885 1.28-1.469.81-.583 1.826-.866 1.035-.3 2.127-.3 1.26 0 2.296.225 1.036.226 1.77.697.753.451 1.148 1.148.414.696.414 1.619 0 .715-.47 1.242-.471.527-1.318.527-.81 0-1.243-.339-.414-.358-.414-.96 0-.395.189-.621.207-.226.451-.358.245-.15.433-.244.207-.113.207-.283 0-.527-.564-.828-.565-.32-1.45-.32zm15.328 2.07q.696-.997 1.58-1.788.359-.338.791-.658.452-.32.942-.565.508-.264 1.054-.414.564-.15 1.148-.15 1.261 0 2.259.489.997.489 1.675 1.637.678 1.148 1.035 3.05.358 1.882.358 4.687 0 2.729-.49 4.743-.489 2.014-1.28 3.426-.79 1.412-1.788 2.296-.997.904-2.014 1.412-1.016.508-1.957.697-.942.207-1.62.226l-.187-.772q.847-.207 1.505-.772.66-.565 1.111-1.845.452-1.298.678-3.482.244-2.183.244-5.628 0-2.372-.225-3.784-.208-1.43-.565-2.164-.339-.753-.79-.98-.434-.244-.885-.244-.546 0-.96.301-.415.283-.735.66-.3.376-.527.752-.207.376-.357.565v12.574q0 .244-.076.602-.075.339-.376.659-.282.301-.866.508-.565.226-1.562.226-.998 0-1.581-.245-.584-.226-.885-.546-.282-.32-.358-.658-.075-.34-.075-.546V76.95q0-.546-.264-.942-.244-.414-.847-.414-.32 0-.564.113-.226.094-.49.301l-.376-.451q.433-.358.96-.697.527-.357 1.148-.621.64-.264 1.355-.433.716-.17 1.506-.17 1.224 0 1.901.34.678.32.998.809.32.47.376 1.016.076.527.076.941zm26.659 6.589q0-1.638-.17-3.068-.169-1.45-.545-2.523-.377-1.092-.96-1.713-.584-.64-1.412-.64-.64 0-1.092.32-.433.302-.715.697-.282.395-.414.79-.132.377-.132.509v5.628q0 4.103.678 5.967.696 1.863 2.033 1.863 1.411 0 2.07-1.9.659-1.902.659-5.93zM202.391 76.95q0-.546-.263-.942-.245-.414-.847-.414-.32 0-.565.113-.226.094-.49.301l-.376-.451q.433-.358.96-.697.546-.357 1.167-.621t1.337-.433q.715-.17 1.505-.17 1.092 0 1.751.34.678.32 1.016.809.358.47.471 1.035.113.546.113 1.017v8.395q.226-.207.584-.508.357-.32.903-.622.546-.3 1.299-.508.772-.207 1.807-.207 1.205 0 2.41.565 1.204.546 2.164 1.732.96 1.185 1.562 3.049.603 1.864.603 4.48 0 2.052-.565 3.878-.546 1.825-1.638 3.2-1.091 1.355-2.729 2.145-1.638.791-3.802.791-2.353 0-3.972-.753-1.6-.772-2.579-2.052-.979-1.298-1.412-3.011-.414-1.713-.414-3.614zm20.862 16.338q0-2.466.715-4.31.715-1.864 1.901-3.106 1.205-1.242 2.786-1.864 1.581-.62 3.313-.62 1.732 0 3.313.583 1.581.564 2.767 1.75 1.205 1.186 1.92 3.012.715 1.807.715 4.292 0 2.466-.715 4.367-.715 1.901-1.92 3.2-1.186 1.299-2.767 1.976-1.581.66-3.313.66-1.732 0-3.313-.622-1.581-.64-2.786-1.882-1.186-1.243-1.9-3.106-.716-1.864-.716-4.33zm11.576-.188q0-1.506-.113-2.899-.094-1.412-.395-2.503-.301-1.092-.866-1.732-.565-.659-1.487-.659-.922 0-1.487.697-.565.677-.866 1.807-.301 1.11-.395 2.54-.094 1.431-.094 2.937 0 1.506.094 2.956.094 1.43.395 2.56.301 1.129.866 1.825.565.678 1.487.678.922 0 1.487-.715.565-.716.866-1.883.301-1.167.395-2.635.113-1.468.113-2.974zm21.295.452q0-1.638-.17-3.068-.169-1.45-.545-2.523-.377-1.092-.96-1.713-.584-.64-1.412-.64-.64 0-1.092.32-.433.302-.715.697-.283.395-.414.79-.132.377-.132.509v5.628q0 4.103.678 5.967.696 1.863 2.032 1.863 1.412 0 2.071-1.9.659-1.902.659-5.93zM244.905 76.95q0-.546-.263-.942-.245-.414-.847-.414-.32 0-.565.113-.226.094-.49.301l-.376-.451q.433-.358.96-.697.546-.357 1.167-.621t1.336-.433q.716-.17 1.506-.17 1.092 0 1.75.34.679.32 1.017.809.358.47.471 1.035.113.546.113 1.017v8.395q.226-.207.583-.508.358-.32.904-.622.546-.3 1.299-.508.772-.207 1.807-.207 1.205 0 2.41.565 1.204.546 2.164 1.732.96 1.185 1.562 3.049.603 1.864.603 4.48 0 2.052-.565 3.878-.546 1.825-1.638 3.2-1.092 1.355-2.73 2.145-1.637.791-3.801.791-2.353 0-3.972-.753-1.6-.772-2.579-2.052-.979-1.298-1.412-3.011-.414-1.713-.414-3.614z" transform="matrix(1 0 0 .83742 -109.232 -61.666)" aria-label="Wishbob"/>
	</g>
</svg>

<?xml version="1.0" ?>
<svg xmlns:xlink="http://www.w3.org/1999/xlink" xmlns="http://www.w3.org/2000/svg" viewBox="0 0 152.784 27.144">
	<defs>
		<linearGradient id="a">
			<stop style="stop-color:#f60;stop-opacity:1" offset="0"/>
			<stop style="stop-color:#fc0;stop-opacity:1" offset="1"/>
		</linearGradient>
		<linearGradient xlink:href="#a" id="d" gradientUnits="userSpaceOnUse" x1="109.232" y1="89.845" x2="262.016" y2="89.845"/>
		<marker style="overflow:visible" id="c" refX="0" refY="0" orient="auto">
			<path transform="matrix(.8 0 0 .8 10 0)" style="fill:#e77171;fill-opacity:1;fill-rule:evenodd;stroke:none;stroke-width:1pt;stroke-opacity:1" d="M 0.0,0.0 L 5.0,-5.0 L -12.5,0.0 L 5.0,5.0 L 0.0,0.0"/>
		</marker>
		<marker style="overflow:visible" id="b" refX="0" refY="0" orient="auto">
			<path transform="matrix(.8 0 0 .8 10 0)" style="fill:#e77171;fill-opacity:1;fill-rule:evenodd;stroke:none;stroke-width:1pt;stroke-opacity:1" d="M 0.0,0.0 L 5.0,-5.0 L -12.5,0.0 L 5.0,5.0 L 0.0,0.0"/>
		</marker>
		<path id="e" d="M 37.798,65.768 L 334.731,65.768 L 334.731,127.965 L 37.798,127.965 L 37.798,65.768"/>
	</defs>
	<g transform="translate(-70.678 -79.926)">
		<path style="opacity:1;fill:#e77171;fill-opacity:1;stroke:none;stroke-width:0;stroke-linecap:butt;stroke-linejoin:bevel;stroke-miterlimit:4;stroke-dasharray:none;stroke-opacity:1;marker-start:url(#b)" d="M 203.053,87.17 C 203.053,87.17 203.847,90.36 202.795,90.084 C 200.393,89.451 199.818,88.687 197.484,88.512 C 195.149,88.338 193.456,89.385 193.456,89.385 L 193.456,88.12 C 193.456,88.12 195.791,86.992 197.016,86.505 C 198.951,85.735 203.844,82.481 202.986,84.446 C 202.6,85.328 203.053,87.172 203.053,87.172 L 203.053,87.17"/>
		<ellipse style="fill:#e77171;fill-opacity:1;stroke:none;stroke-width:.00400521;stroke-linejoin:bevel;stroke-miterlimit:4;stroke-dasharray:none;stroke-opacity:1;paint-order:fill markers stroke" cx="193.512" cy="87.684" rx=".941" ry=".565"/>
		<path style="fill:#e77171;fill-opacity:1;stroke:none;stroke-width:0;stroke-linecap:butt;stroke-linejoin:bevel;stroke-miterlimit:4;stroke-dasharray:none;stroke-opacity:1;marker-start:url(#c)" d="M 183.942,87.17 C 183.942,87.17 183.148,90.36 184.199,90.084 C 186.601,89.451 187.176,88.687 189.511,88.512 C 191.846,88.338 193.539,89.385 193.539,89.385 L 193.539,88.12 C 193.539,88.12 191.204,86.992 189.979,86.505 C 188.043,85.735 183.151,82.481 184.009,84.446 C 184.394,85.328 183.942,87.172 183.942,87.172 L 183.942,87.17"/>
	</g>
	<g>
		<path style="fill:#e77171;stroke:url(#d);stroke-width:0" d="M 129.75,96.339 Q 130.163,95.229 130.615,93.949 Q 131.067,92.669 131.5,91.313 Q 131.933,89.939 132.328,88.546 Q 132.742,87.134 133.062,85.779 L 131.236,79.793 Q 131.048,79.172 131.256,78.72 Q 131.481,78.25 131.952,77.948 Q 132.422,77.628 133.062,77.478 Q 133.721,77.327 134.436,77.327 Q 135.057,77.327 135.546,77.402 Q 136.036,77.459 136.394,77.628 Q 136.77,77.798 137.015,78.118 Q 137.26,78.418 137.41,78.908 L 142.813,96.301 Q 143.246,95.134 143.716,93.779 Q 144.186,92.423 144.639,90.993 Q 145.09,89.563 145.504,88.094 Q 145.919,86.626 146.22,85.214 Q 146.54,83.802 146.71,82.522 Q 146.897,81.223 146.897,80.151 Q 146.897,78.908 146.728,78.08 Q 146.558,77.252 146.333,76.706 Q 146.126,76.141 145.956,75.783 Q 145.786,75.426 145.786,75.125 Q 145.786,74.729 145.994,74.465 Q 146.201,74.183 146.521,73.995 Q 146.841,73.807 147.217,73.732 Q 147.594,73.638 147.933,73.638 Q 148.686,73.638 149.213,73.863 Q 149.74,74.089 149.947,74.635 Q 150.041,74.918 150.097,75.238 Q 150.154,75.538 150.173,75.84 Q 150.21,76.122 150.21,76.386 L 150.21,76.781 Q 150.21,77.571 149.947,78.946 Q 149.702,80.32 149.25,82.052 Q 148.817,83.765 148.253,85.742 Q 147.688,87.718 147.067,89.732 Q 146.464,91.727 145.843,93.647 Q 145.223,95.567 144.657,97.205 Q 144.112,98.823 143.679,100.065 Q 143.264,101.289 143.039,101.892 Q 142.888,102.343 142.624,102.607 Q 142.38,102.87 142.041,103.002 Q 141.721,103.152 141.326,103.19 Q 140.949,103.228 140.536,103.228 Q 139.782,103.228 139.293,103.078 Q 138.823,102.927 138.54,102.701 Q 138.257,102.475 138.126,102.211 Q 137.994,101.948 137.919,101.741 L 134.173,89.431 Q 133.552,91.482 132.912,93.477 Q 132.272,95.454 131.688,97.129 Q 131.123,98.805 130.672,100.066 Q 130.22,101.308 129.975,101.892 Q 129.787,102.343 129.505,102.607 Q 129.241,102.87 128.902,103.002 Q 128.582,103.152 128.206,103.19 Q 127.829,103.228 127.434,103.228 Q 126.681,103.228 126.192,103.078 Q 125.721,102.927 125.439,102.701 Q 125.156,102.475 125.006,102.211 Q 124.874,101.948 124.799,101.741 L 118.098,79.341 Q 117.909,78.701 117.683,78.268 Q 117.476,77.816 117.156,77.534 Q 116.856,77.252 116.403,77.12 Q 115.97,76.988 115.33,76.988 Q 114.803,76.988 114.107,77.252 Q 113.41,77.496 112.77,78.005 Q 112.15,78.494 111.716,79.247 Q 111.283,79.981 111.283,80.96 Q 111.283,81.562 111.434,81.92 Q 111.604,82.277 111.81,82.466 Q 112.018,82.636 112.225,82.692 Q 112.45,82.729 112.545,82.729 Q 113.015,82.729 113.316,82.579 Q 113.618,82.409 113.862,82.239 Q 114.107,82.052 114.314,81.901 Q 114.54,81.731 114.822,81.731 Q 115.048,81.731 115.292,81.845 Q 115.556,81.939 115.763,82.165 Q 115.989,82.39 116.14,82.767 Q 116.29,83.125 116.29,83.652 Q 116.29,84.405 115.99,84.95 Q 115.707,85.496 115.236,85.873 Q 114.785,86.23 114.182,86.419 Q 113.599,86.588 113.015,86.588 Q 112.112,86.588 111.396,86.268 Q 110.7,85.948 110.21,85.402 Q 109.74,84.856 109.476,84.141 Q 109.232,83.407 109.232,82.579 Q 109.232,80.621 109.985,79.172 Q 110.738,77.703 111.98,76.725 Q 113.222,75.745 114.803,75.275 Q 116.385,74.785 118.06,74.785 Q 119.942,74.785 121.147,75.369 Q 122.352,75.934 123.086,76.838 Q 123.839,77.741 124.272,78.87 Q 124.705,79.981 125.043,81.073 L 129.75,96.339 M 159.514,101.233 Q 159.514,101.477 159.42,101.835 Q 159.345,102.174 159.025,102.494 Q 158.724,102.795 158.14,103.002 Q 157.557,103.228 156.56,103.228 Q 155.562,103.228 154.997,102.983 Q 154.432,102.757 154.15,102.437 Q 153.867,102.117 153.792,101.779 Q 153.736,101.439 153.736,101.233 L 153.736,86.7 Q 153.736,86.154 153.472,85.759 Q 153.227,85.345 152.625,85.345 Q 152.305,85.345 152.079,85.458 Q 151.853,85.571 151.589,85.778 L 151.194,85.308 Q 151.627,84.95 152.154,84.611 Q 152.7,84.253 153.322,83.99 Q 153.942,83.726 154.658,83.557 Q 155.373,83.387 156.164,83.387 Q 157.387,83.387 158.065,83.726 Q 158.743,84.046 159.063,84.536 Q 159.383,85.006 159.439,85.552 Q 159.514,86.098 159.514,86.512 L 159.514,101.233 M 153.152,79.096 Q 153.152,78.569 153.378,78.099 Q 153.623,77.609 154.037,77.252 Q 154.47,76.894 155.016,76.687 Q 155.58,76.48 156.239,76.48 Q 156.879,76.48 157.425,76.687 Q 157.99,76.894 158.404,77.252 Q 158.818,77.609 159.044,78.099 Q 159.289,78.569 159.289,79.096 Q 159.289,79.642 159.044,80.113 Q 158.818,80.583 158.404,80.941 Q 157.99,81.28 157.425,81.487 Q 156.879,81.694 156.239,81.694 Q 155.58,81.694 155.016,81.487 Q 154.47,81.28 154.036,80.941 Q 153.623,80.583 153.378,80.113 Q 153.152,79.643 153.152,79.096 L 153.152,79.096 M 171.623,84.894 Q 171.19,84.894 170.795,85.007 Q 170.418,85.12 170.117,85.383 Q 169.817,85.628 169.647,86.023 Q 169.477,86.4 169.477,86.927 Q 169.477,87.661 170.004,88.395 Q 170.55,89.11 171.341,89.901 Q 172.151,90.673 173.073,91.52 Q 174.013,92.348 174.804,93.29 Q 175.614,94.212 176.141,95.266 Q 176.687,96.32 176.687,97.525 Q 176.687,98.88 176.217,99.934 Q 175.764,100.988 174.898,101.722 Q 174.051,102.456 172.828,102.852 Q 171.623,103.228 170.136,103.228 Q 168.837,103.228 167.783,102.87 Q 166.729,102.494 165.901,101.967 Q 165.091,101.421 164.508,100.819 Q 163.924,100.216 163.604,99.727 L 164.264,99.257 Q 164.508,99.539 164.884,99.877 Q 165.261,100.197 165.713,100.48 Q 166.183,100.762 166.71,100.95 Q 167.237,101.12 167.783,101.12 Q 169.138,101.12 170.004,100.48 Q 170.87,99.821 170.87,98.541 Q 170.87,97.826 170.4,97.073 Q 169.93,96.301 169.214,95.492 Q 168.498,94.682 167.67,93.816 Q 166.842,92.95 166.127,92.028 Q 165.411,91.106 164.941,90.127 Q 164.471,89.148 164.471,88.094 Q 164.471,86.908 164.941,86.024 Q 165.431,85.139 166.221,84.555 Q 167.031,83.972 168.047,83.689 Q 169.082,83.389 170.174,83.389 Q 171.434,83.389 172.47,83.614 Q 173.506,83.84 174.24,84.311 Q 174.993,84.762 175.388,85.459 Q 175.802,86.155 175.802,87.078 Q 175.802,87.793 175.332,88.32 Q 174.861,88.847 174.014,88.847 Q 173.204,88.847 172.771,88.508 Q 172.357,88.15 172.357,87.548 Q 172.357,87.153 172.546,86.927 Q 172.753,86.701 172.997,86.569 Q 173.242,86.419 173.43,86.325 Q 173.637,86.212 173.637,86.042 Q 173.637,85.515 173.073,85.214 Q 172.508,84.894 171.623,84.894 L 171.623,84.894 M 186.951,86.964 Q 187.647,85.967 188.531,85.176 Q 188.89,84.838 189.322,84.518 Q 189.774,84.198 190.264,83.953 Q 190.772,83.689 191.318,83.539 Q 191.882,83.389 192.466,83.389 Q 193.727,83.389 194.725,83.878 Q 195.722,84.367 196.4,85.515 Q 197.078,86.663 197.435,88.565 Q 197.793,90.447 197.793,93.252 Q 197.793,95.981 197.303,97.995 Q 196.814,100.009 196.023,101.421 Q 195.233,102.833 194.235,103.717 Q 193.238,104.621 192.221,105.129 Q 191.205,105.637 190.264,105.826 Q 189.322,106.033 188.644,106.052 L 188.457,105.28 Q 189.304,105.073 189.962,104.508 Q 190.622,103.943 191.073,102.663 Q 191.525,101.365 191.751,99.181 Q 191.995,96.998 191.995,93.553 Q 191.995,91.181 191.77,89.769 Q 191.562,88.339 191.205,87.605 Q 190.866,86.852 190.415,86.625 Q 189.981,86.381 189.53,86.381 Q 188.984,86.381 188.57,86.682 Q 188.155,86.965 187.835,87.342 Q 187.535,87.718 187.308,88.094 Q 187.101,88.47 186.951,88.659 L 186.951,101.233 Q 186.951,101.477 186.875,101.835 Q 186.8,102.174 186.499,102.494 Q 186.217,102.795 185.633,103.002 Q 185.068,103.228 184.071,103.228 Q 183.073,103.228 182.49,102.983 Q 181.906,102.757 181.605,102.437 Q 181.323,102.117 181.247,101.779 Q 181.172,101.439 181.172,101.233 L 181.172,76.95 Q 181.172,76.404 180.908,76.008 Q 180.664,75.594 180.061,75.594 Q 179.741,75.594 179.497,75.707 Q 179.271,75.801 179.007,76.008 L 178.631,75.557 Q 179.064,75.199 179.591,74.86 Q 180.118,74.503 180.739,74.239 Q 181.379,73.975 182.094,73.806 Q 182.81,73.636 183.6,73.636 Q 184.824,73.636 185.501,73.976 Q 186.179,74.296 186.499,74.785 Q 186.819,75.255 186.875,75.801 Q 186.951,76.328 186.951,76.742 L 186.951,86.964 M 213.61,93.553 Q 213.61,91.915 213.44,90.485 Q 213.271,89.035 212.895,87.962 Q 212.518,86.87 211.935,86.249 Q 211.351,85.609 210.523,85.609 Q 209.883,85.609 209.431,85.929 Q 208.998,86.231 208.716,86.626 Q 208.434,87.021 208.302,87.416 Q 208.17,87.793 208.17,87.925 L 208.17,93.553 Q 208.17,97.656 208.848,99.52 Q 209.544,101.383 210.881,101.383 Q 212.292,101.383 212.951,99.483 Q 213.61,97.581 213.61,93.553 L 213.61,93.553 M 202.391,76.95 Q 202.391,76.404 202.128,76.008 Q 201.883,75.594 201.281,75.594 Q 200.961,75.594 200.716,75.707 Q 200.49,75.801 200.226,76.008 L 199.85,75.557 Q 200.283,75.199 200.81,74.86 Q 201.356,74.503 201.977,74.239 Q 202.598,73.975 203.314,73.806 Q 204.029,73.636 204.819,73.636 Q 205.911,73.636 206.57,73.976 Q 207.248,74.296 207.586,74.785 Q 207.944,75.255 208.057,75.82 Q 208.17,76.366 208.17,76.837 L 208.17,85.232 Q 208.396,85.025 208.754,84.724 Q 209.111,84.404 209.657,84.102 Q 210.203,83.802 210.956,83.594 Q 211.728,83.387 212.763,83.387 Q 213.968,83.387 215.173,83.952 Q 216.377,84.498 217.337,85.684 Q 218.297,86.869 218.899,88.733 Q 219.502,90.597 219.502,93.213 Q 219.502,95.265 218.937,97.091 Q 218.391,98.916 217.299,100.291 Q 216.208,101.646 214.57,102.436 Q 212.932,103.227 210.768,103.227 Q 208.415,103.227 206.796,102.474 Q 205.196,101.702 204.217,100.422 Q 203.238,99.124 202.805,97.411 Q 202.391,95.698 202.391,93.797 L 202.391,76.95 M 223.253,93.288 Q 223.253,90.822 223.968,88.978 Q 224.683,87.114 225.869,85.872 Q 227.074,84.63 228.655,84.008 Q 230.236,83.388 231.968,83.388 Q 233.7,83.388 235.281,83.971 Q 236.862,84.535 238.048,85.721 Q 239.253,86.907 239.968,88.733 Q 240.683,90.54 240.683,93.025 Q 240.683,95.491 239.968,97.392 Q 239.253,99.293 238.048,100.592 Q 236.862,101.891 235.281,102.568 Q 233.7,103.228 231.968,103.228 Q 230.236,103.228 228.655,102.606 Q 227.074,101.966 225.869,100.724 Q 224.683,99.481 223.969,97.618 Q 223.253,95.754 223.253,93.288 M 234.829,93.1 Q 234.829,91.594 234.716,90.201 Q 234.622,88.789 234.321,87.698 Q 234.02,86.606 233.455,85.966 Q 232.89,85.307 231.968,85.307 Q 231.046,85.307 230.481,86.004 Q 229.916,86.681 229.615,87.811 Q 229.314,88.921 229.22,90.351 Q 229.126,91.782 229.126,93.288 Q 229.126,94.794 229.22,96.244 Q 229.314,97.674 229.615,98.804 Q 229.916,99.933 230.481,100.629 Q 231.046,101.307 231.968,101.307 Q 232.89,101.307 233.455,100.592 Q 234.02,99.876 234.321,98.709 Q 234.622,97.542 234.716,96.074 Q 234.829,94.606 234.829,93.1 M 256.124,93.552 Q 256.124,91.914 255.954,90.484 Q 255.785,89.034 255.409,87.961 Q 255.032,86.869 254.449,86.248 Q 253.865,85.608 253.037,85.608 Q 252.397,85.608 251.945,85.928 Q 251.512,86.23 251.23,86.625 Q 250.947,87.02 250.816,87.415 Q 250.684,87.792 250.684,87.924 L 250.684,93.552 Q 250.684,97.655 251.362,99.519 Q 252.058,101.382 253.394,101.382 Q 254.806,101.382 255.465,99.482 Q 256.124,97.58 256.124,93.552 L 256.124,93.552 M 244.905,76.95 Q 244.905,76.404 244.642,76.008 Q 244.397,75.594 243.795,75.594 Q 243.475,75.594 243.23,75.707 Q 243.004,75.801 242.74,76.008 L 242.364,75.557 Q 242.797,75.199 243.324,74.86 Q 243.87,74.503 244.491,74.239 Q 245.112,73.975 245.827,73.806 Q 246.543,73.636 247.333,73.636 Q 248.425,73.636 249.083,73.976 Q 249.762,74.296 250.1,74.785 Q 250.458,75.255 250.571,75.82 Q 250.684,76.366 250.684,76.837 L 250.684,85.232 Q 250.91,85.025 251.267,84.724 Q 251.625,84.404 252.171,84.102 Q 252.717,83.802 253.47,83.594 Q 254.242,83.387 255.277,83.387 Q 256.482,83.387 257.687,83.952 Q 258.891,84.498 259.851,85.684 Q 260.811,86.869 261.413,88.733 Q 262.016,90.597 262.016,93.213 Q 262.016,95.265 261.451,97.091 Q 260.905,98.916 259.813,100.291 Q 258.721,101.646 257.083,102.436 Q 255.446,103.227 253.282,103.227 Q 250.929,103.227 249.31,102.474 Q 247.71,101.702 246.731,100.422 Q 245.752,99.124 245.319,97.411 Q 244.905,95.698 244.905,93.797 L 244.905,76.95" transform="matrix(1 0 0 .83742 -109.232 -61.666)" aria-label="Wishbob"/>
	</g>
</svg>
